X: 32642
T: Plethen Peswar Luf
R: hornpipe
M: 4/4
K: Dmajor
|:FE|D2 FA dA F2|D2 GB dB G2|D2 FA dAFd|AdcB AGFE|
D2 FA dA F2|D2 GB dB G2|edcB AGFE|D2 D2 D2:|
|:Ac|dAFA dAFA|dBGB dBGB|dAFA dAFA|cAEA cA E2|
dAFA dAFA|dBGB dBGB|edcB AGFE|D2 d2 d2:|

